app/dist/common/images/patriot-bank.svg

<svg height="18" viewBox="0 0 18 18" width="18" xmlns="http://www.w3.org/2000/svg"><path d="m0 0h18v18h-18z" fill="#f0f3fa"/><path d="m10.2 6.4-1.2-3.9-1.2 4.2zm-.51 5.3 3.31 2.3-1.31-3.77z" fill="#025878"/><path d="m15 6.7-3.03.36-5.88 4.1-1.09 2.84zm-7.18.75-2.82 1.8 1.32.75 4.38-3zm-4.82.39 1.3.86 1.7-1.1z" fill="#912b2b"/></svg>

<!-- by TradingView --><svg xmlns="http://www.w3.org/2000/svg" width="18" height="18" viewBox="0 0 18 18"><path fill="#F0F3FA" d="M0 0h18v18H0z"/><path d="M10.2 6.4 9 2.5 7.8 6.7l2.4-.3ZM9.69 11.7 13 14l-1.31-3.77-2 1.47Z" fill="#025878"/><path d="m15 6.7-3.03.36-5.88 4.1L5 14l10-7.3ZM7.82 7.45 5 9.25l1.32.75 4.38-3-2.88.45ZM3 7.84l1.3.86L6 7.6l-3 .24Z" fill="#912B2B"/></svg>
